other/kancionl.svg

<?xml version="1.0" encoding="UTF-8" standalone="no"?>
<svg
   xmlns:dc="http://purl.org/dc/elements/1.1/"
   xmlns:cc="http://creativecommons.org/ns#"
   xmlns:rdf="http://www.w3.org/1999/02/22-rdf-syntax-ns#"
   xmlns:svg="http://www.w3.org/2000/svg"
   xmlns="http://www.w3.org/2000/svg"
   xmlns:sodipodi="http://sodipodi.sourceforge.net/DTD/sodipodi-0.dtd"
   xmlns:inkscape="http://www.inkscape.org/namespaces/inkscape"
   viewBox="0 0 48 48"
   version="1.1"
   id="svg8"
   sodipodi:docname="square.svg"
   inkscape:version="1.0.1 (3bc2e813f5, 2020-09-07, custom)">
  <metadata
     id="metadata12">
    <rdf:RDF>
      <cc:Work
         rdf:about="">
        <dc:format>image/svg+xml</dc:format>
        <dc:type
           rdf:resource="http://purl.org/dc/dcmitype/StillImage" />
        <dc:title />
      </cc:Work>
    </rdf:RDF>
  </metadata>
  <sodipodi:namedview
     pagecolor="#000000"
     bordercolor="#666666"
     borderopacity="1"
     objecttolerance="10"
     gridtolerance="10"
     guidetolerance="10"
     inkscape:pageopacity="0"
     inkscape:pageshadow="2"
     inkscape:window-width="1920"
     inkscape:window-height="1080"
     id="namedview10"
     showgrid="false"
     inkscape:pagecheckerboard="true"
     inkscape:zoom="16"
     inkscape:cx="18.530986"
     inkscape:cy="23.148328"
     inkscape:window-x="0"
     inkscape:window-y="0"
     inkscape:window-maximized="1"
     inkscape:current-layer="svg8"
     inkscape:document-rotation="0" />
  <defs
     id="defs4">
    <style
       id="style2">.a{fill:none;stroke:#fff;stroke-linecap:round;stroke-linejoin:round;}</style>
    <style
       id="style950">.cls-1{fill:none;stroke:#fff;stroke-linecap:round;stroke-linejoin:round;}</style>
    <style
       id="style968">.cls-1{fill:none;stroke:#fff;stroke-linecap:round;stroke-linejoin:round;}</style>
    <style
       id="style992">.cls-1{fill:none;stroke:#fff;stroke-linecap:round;stroke-linejoin:round;}</style>
    <style
       id="style1010">.cls-1{fill:none;stroke:#fff;stroke-linecap:round;stroke-linejoin:round;}</style>
    <style
       id="style1037">.cls-1{fill:none;stroke:#fff;stroke-linecap:round;stroke-linejoin:round;}</style>
    <style
       id="style1061">.cls-1{fill:none;stroke:#fff;stroke-linecap:round;stroke-linejoin:round;}</style>
    <style
       id="style1079">.cls-1{fill:none;stroke:#fff;stroke-linecap:round;stroke-linejoin:round;}</style>
  </defs>
  <path
     id="path6"
     d="M 9.5 5.5 L 9.5 7.5 A 2 2 0 0 1 7.5 9.5 L 5.5 9.5 L 5.5 38.5 L 7.5 38.5 A 2 2 0 0 1 9.5 40.5 L 9.5 42.5 L 38.5 42.5 L 38.5 40.5 A 2 2 0 0 1 40.5 38.5 L 42.5 38.5 L 42.5 9.5 L 40.5 9.5 A 2 2 0 0 1 38.5 7.5 L 38.5 5.5 L 9.5 5.5 z "
     style="stroke:#ffffff;fill:none;stroke-linejoin:round;stroke-linecap:round" />
  <path
     class="cls-1"
     d="m 33.512425,22.78996 a 2.2419535,2.241853 0 0 0 -2.371488,-2.241853 c -1.215637,0.06476 -2.127365,1.158291 -2.127365,2.378855 v 2.089905 a 2.2419535,2.241853 0 0 0 2.241953,2.254308 v 0 a 2.2419535,2.241853 0 0 0 2.241954,-2.241853 v -2.216944"
     id="path956"
     style="stroke-width:1;stroke-miterlimit:4;stroke-dasharray:none" />
  <polyline
     class="cls-1"
     points="17.27 10.5 17.27 37.5 30.73 37.5"
     id="polyline998"
     style="stroke-width:4.01445;stroke-miterlimit:4;stroke-dasharray:none"
     transform="matrix(0.24910595,0,0,0.24909478,27.291861,28.672285)" />
  <line
     class="cls-1"
     x1="21.896484"
     y1="27.261211"
     x2="25.254433"
     y2="27.261211"
     id="line1043"
     style="stroke-width:1;stroke-miterlimit:4;stroke-dasharray:none" />
  <line
     class="cls-1"
     x1="21.896484"
     y1="20.535652"
     x2="25.254433"
     y2="20.535652"
     id="line1045"
     style="stroke-width:1;stroke-miterlimit:4;stroke-dasharray:none" />
  <line
     class="cls-1"
     x1="23.575459"
     y1="20.535652"
     x2="23.575459"
     y2="27.261211"
     id="line1047"
     style="stroke-width:1;stroke-miterlimit:4;stroke-dasharray:none" />
  <path
     class="cls-1"
     d="m 18.971425,25.006903 a 2.2419535,2.241853 0 0 1 -2.241953,2.254308 v 0 a 2.2419535,2.241853 0 0 1 -2.241954,-2.241853 v -2.216943 a 2.2419535,2.241853 0 0 1 2.241954,-2.241853 v 0 a 2.2419535,2.241853 0 0 1 2.241953,2.254307"
     id="path1067"
     style="stroke-width:1;stroke-miterlimit:4;stroke-dasharray:none" />
  <line
     class="cls-1"
     x1="31.015995"
     y1="9.6896353"
     x2="31.015995"
     y2="16.415194"
     id="line974"
     style="stroke-width:1;stroke-miterlimit:4;stroke-dasharray:none" />
  <line
     class="cls-1"
     x1="35.524811"
     y1="16.415194"
     x2="35.524811"
     y2="9.6896353"
     id="line976"
     style="stroke-width:1;stroke-miterlimit:4;stroke-dasharray:none" />
  <line
     class="cls-1"
     x1="31.015995"
     y1="9.6896353"
     x2="35.524811"
     y2="16.415194"
     id="line978"
     style="stroke-width:1;stroke-miterlimit:4;stroke-dasharray:none" />
  <line
     class="cls-1"
     x1="13.063078"
     y1="9.6995983"
     x2="13.063078"
     y2="16.395266"
     id="line1016"
     style="stroke-width:1;stroke-miterlimit:4;stroke-dasharray:none" />
  <line
     class="cls-1"
     x1="13.927476"
     y1="13.047432"
     x2="16.396116"
     y2="9.7220173"
     id="line1018"
     style="stroke-width:1;stroke-miterlimit:4;stroke-dasharray:none" />
  <line
     class="cls-1"
     x1="13.927476"
     y1="13.047432"
     x2="16.396116"
     y2="16.40523"
     id="line1020"
     style="stroke-width:1;stroke-miterlimit:4;stroke-dasharray:none" />
  <line
     class="cls-1"
     x1="13.927476"
     y1="13.047432"
     x2="13.063078"
     y2="13.047432"
     id="line1022"
     style="stroke-width:1;stroke-miterlimit:4;stroke-dasharray:none" />
  <line
     class="cls-1"
     x1="21.380835"
     y1="16.395266"
     x2="23.622789"
     y2="9.6896353"
     id="line1085"
     style="stroke-width:1;stroke-miterlimit:4;stroke-dasharray:none" />
  <line
     class="cls-1"
     x1="25.770082"
     y1="16.415194"
     x2="23.622789"
     y2="9.6896353"
     id="line1087"
     style="stroke-width:1;stroke-miterlimit:4;stroke-dasharray:none" />
  <line
     class="cls-1"
     x1="25.052658"
     y1="14.165868"
     x2="22.125662"
     y2="14.165868"
     id="line1089"
     style="stroke-width:1;stroke-miterlimit:4;stroke-dasharray:none" />
  <line
     class="cls-1"
     x1="12.475188"
     y1="31.287781"
     x2="12.475188"
     y2="38.01334"
     id="line1105"
     style="stroke-width:1;stroke-miterlimit:4;stroke-dasharray:none" />
  <line
     class="cls-1"
     x1="16.984005"
     y1="38.01334"
     x2="16.984005"
     y2="31.287781"
     id="line1107"
     style="stroke-width:1;stroke-miterlimit:4;stroke-dasharray:none" />
  <line
     class="cls-1"
     x1="12.475188"
     y1="31.287781"
     x2="16.984005"
     y2="38.01334"
     id="line1109"
     style="stroke-width:1;stroke-miterlimit:4;stroke-dasharray:none" />
  <line
     class="cls-1"
     x1="21.380835"
     y1="37.993412"
     x2="23.622789"
     y2="31.287781"
     id="line1115"
     style="stroke-width:1;stroke-miterlimit:4;stroke-dasharray:none" />
  <line
     class="cls-1"
     x1="25.770082"
     y1="38.01334"
     x2="23.622789"
     y2="31.287781"
     id="line1117"
     style="stroke-width:1;stroke-miterlimit:4;stroke-dasharray:none" />
  <line
     class="cls-1"
     x1="25.052658"
     y1="35.764011"
     x2="22.125662"
     y2="35.764011"
     id="line1119"
     style="stroke-width:1;stroke-miterlimit:4;stroke-dasharray:none" />
  <line
     class="cls-1"
     x1="24.679247"
     y1="29.14695"
     x2="23.722879"
     y2="30.103317"
     id="line1318"
     style="stroke-width:1;stroke-miterlimit:4;stroke-dasharray:none" />
</svg>

<svg id="Layer_1" data-name="Layer 1" xmlns="http://www.w3.org/2000/svg" viewBox="0 0 48 48"><defs><style>.cls-1,.cls-2{fill:none;stroke:#fff;stroke-linecap:round;stroke-linejoin:round;}</style></defs><path id="path6" class="cls-1" d="M9.5,5.5v2a2,2,0,0,1-2,2h-2v29h2a2,2,0,0,1,2,2v2h29v-2a2,2,0,0,1,2-2h2V9.5h-2a2,2,0,0,1-2-2v-2Z"/><path id="path956" class="cls-1" d="M33.51,22.79a2.25,2.25,0,0,0-2.24-2.25h-.13A2.34,2.34,0,0,0,29,22.93V25a2.25,2.25,0,0,0,2.23,2.25h0A2.24,2.24,0,0,0,33.5,25h0V22.81"/><polyline id="polyline998" class="cls-2" points="31.59 31.29 31.59 38.01 34.95 38.01"/><line id="line1043" class="cls-1" x1="21.9" y1="27.26" x2="25.25" y2="27.26"/><line id="line1045" class="cls-1" x1="21.9" y1="20.54" x2="25.25" y2="20.54"/><line id="line1047" class="cls-1" x1="23.58" y1="20.54" x2="23.58" y2="27.26"/><path id="path1067" class="cls-1" d="M19,25a2.24,2.24,0,0,1-2.23,2.25h0A2.24,2.24,0,0,1,14.49,25h0V22.8a2.24,2.24,0,0,1,2.24-2.24h0A2.24,2.24,0,0,1,19,22.8h0"/><line id="line974" class="cls-1" x1="31.02" y1="9.69" x2="31.02" y2="16.42"/><line id="line976" class="cls-1" x1="35.52" y1="16.42" x2="35.52" y2="9.69"/><line id="line978" class="cls-1" x1="31.02" y1="9.69" x2="35.52" y2="16.42"/><line id="line1016" class="cls-1" x1="13.06" y1="9.7" x2="13.06" y2="16.4"/><line id="line1018" class="cls-1" x1="13.93" y1="13.05" x2="16.4" y2="9.72"/><line id="line1020" class="cls-1" x1="13.93" y1="13.05" x2="16.4" y2="16.41"/><line id="line1022" class="cls-1" x1="13.93" y1="13.05" x2="13.06" y2="13.05"/><line id="line1085" class="cls-1" x1="21.38" y1="16.4" x2="23.62" y2="9.69"/><line id="line1087" class="cls-1" x1="25.77" y1="16.42" x2="23.62" y2="9.69"/><line id="line1089" class="cls-1" x1="25.05" y1="14.17" x2="22.13" y2="14.17"/><line id="line1105" class="cls-1" x1="12.48" y1="31.29" x2="12.48" y2="38.01"/><line id="line1107" class="cls-1" x1="16.98" y1="38.01" x2="16.98" y2="31.29"/><line id="line1109" class="cls-1" x1="12.48" y1="31.29" x2="16.98" y2="38.01"/><line id="line1115" class="cls-1" x1="21.38" y1="37.99" x2="23.62" y2="31.29"/><line id="line1117" class="cls-1" x1="25.77" y1="38.01" x2="23.62" y2="31.29"/><line id="line1119" class="cls-1" x1="25.05" y1="35.76" x2="22.13" y2="35.76"/><line id="line1318" class="cls-1" x1="24.68" y1="29.04" x2="23.72" y2="30"/></svg>
